X:15
T:Peuple de frres - T122
M:C
K:C
CD|EE EE DE FG|F4 E2 EG|c2 c2 B2 AG|A4 G2 zG|cc GG A2 GF|E2 F2|D6 CD|
EE EE DE FG|F4 E2 EG|c2 c2 B2 AG|A4 G4|:E2 EF E2 C2|GG GA G2 E2|\
cc BA G2 FE|G2 F2 E4:|
